X:7
T:RVW2/2/7 Ever So Poor
C:Mr. Broomfield, Herongate, Essex, 22 February 1904
L:1/4
Q:1/4=120
M:3/4
I:linebreak $
K:F
"^(Editorial suggestion " F | F A c | d c A | G F F | F2 c/c/ | d e f |$ g c (d/e/) | f e d | 
w: You|told me you|loved me I|fond- ly be-|lieve and will|make me your|own bride and _|nev- er de-|
c2 c | d e f | (g c) (d/e/) | f e d |$ c2 F/G/ | A B c | d c A | G F F | F2 |] 
w: ceive. You|of- fered to|me _ your _|heart and your|hand and will|make me the|mis- tress of|house and of|land.|



